X:1
T:[ID 1-114b]
T:[ID 1-114b]
T:Bezeichnung standardisiert: Boure Tantz In dieser Quelle auch als: Boure In dieser Quelle auch als: Courant
T:Urheber unbekannt Erstbeleg: vor 1767 (Datum in der schriftlichen Quelle) Datum in der hier transkribierten schriftlichen Quelle: 1776 - 1791
C:Urheber unbekannt
C:Erstbeleg: vor 1767 (Datum in der schriftlichen Quelle)
C:Datum in der hier transkribierten schriftlichen Quelle: 1776 - 1791
L:1/8
M:2/4
K:D
V:1 treble 
V:1
 f2 e2 | dc/B/AG | FaEg | f2 e2 | FaEg | f2 e2 | fe/d/ c/d/e/c/ | d2 D2 :: fgab | efga | fgab | %11
 e2 A2 | fgab | efga |{g} fe/d/ c/d/e/c/ | d2 D2 :| %16

